!!!!SEGMENT: pl-lzu--m-15111--001-045_noskowski-zygmunt--spiewnik-dla-dzieci-op-34-45-sokol.krn
!!!cenid: 18xx:4742
!!!COM: Noskowski, Zygmunt
!!!COM-rismID: pe106604
!!!CDT: 1846/05/02-1909/07/23
!!!CNT: Polish
!!!GTL: Śpiewnik dla dzieci, op. 34
!!!OTL: 45. Sokół
!!!OMV: 045
!!!PDT: 1890
!!!AGN: Secular; Song; Children
!!!YEC: Copyright 2022 Narodowy Instytut Fryderyka Chopina (https://polishscores.org)
!!!YEM: License CC-BY-4.0 (https://creativecommons.org/licenses/by/4.0)
!!!SMS-siglum: PL-LŹu
!!!SMS-shelfmark: M 15111
!!!SMS-variant:
!!!SMS-altvar:
!!!SMS-shelfwork: 001-045 G
!!!NIFC-rismSourceID: 1001234040
!!!NIFC-rismChildID: 1001234040
!!!NIFC-islandoraID: pl-lzu:5455
!!!URL-pdf-islandora: https://repozytorium.nifc.pl/islandora/object/pl-lzu%3A5455/datastream/PDF/view
!!!URL-scan: https://polish.musicsources.pl/pl/lokalizacje/galeria/druki-muzyczne/23228/56 @EN{Scan on Polish Music Sources Website} @PL{Skany w portalu Dziedzictwo Muzyki Polskiej w otwartym dostępie}
!!!IIIF:
!!!ONB-nifc:
!!!AIN: 1 piano 1 vox
!!!key: c
!!!OMD: Lento.
**kern	**kern	**dynam	**kern	**text	**text	**dynam
*part2	*part2	*part2	*part1	*part1	*part1	*part1
*staff3	*staff2	*staff2/3	*staff1	*staff1	*staff1	*staff1
*I"[Piano]	*I"[Piano]	*	*I"[Voice]	*	*	*
*I'pf	*I'pf	*	*I'V	*	*	*
*Ipiano	*Ipiano	*	*Ivox	*	*	*
*ICklav	*ICklav	*	*ICvox	*	*	*
*IGacmp	*IGacmp	*	*IGsolo	*	*	*
*>[A,A]	*>[A,A]	*>[A,A]	*>[A,A]	*>[A,A]	*>[A,A]	*>[A,A]
*>A	*>A	*>A	*>A	*>A	*>A	*>A
*clefF4	*clefG2	*	*clefG2	*	*	*
*k[b-e-a-]	*k[b-e-a-]	*	*k[b-e-a-]	*	*	*
*c:	*c:	*	*c:	*	*	*
*M2/4	*M2/4	*	*M2/4	*	*	*
=1	=1	=1	=1	=1	=1	=1
!	!LO:TX:a:i:t=Wolno	!	!	!	!	!
2G^\	2g^/	p	2r	.	.	.
=2	=2	=2	=2	=2	=2	=2
2G^\	2g^/	.	2r	.	.	.
=3	=3	=3	=3	=3	=3	=3
*	*	*	*	*v:1	*v:2	*
!	!	!	!	!	!	!LO:DY:rj
8.G\L	8.g/L	.	8.g/	Po-	We-	p
16c\Jk	16cc/Jk	.	16cc\	-czer-	-sel-	.
8c\L	8cc\L	.	8cc\	-nia-	-szą	.
8B-\J	8b-\J	.	8b-\	-ło	go-	.
=4	=4	=4	=4	=4	=4	=4
4G\	4g/	.	4g/	nie-	-ści-	.
4A-\	4a-/	.	4a-/	-bo,	-nę	.
=5	=5	=5	=5	=5	=5	=5
4A- 4D\	8.fL 8.c/	.	8.f/	Po-	Znaj-	.
.	16a-/Jk	.	16a-/	-czer-	-dziesz	.
4GG/	8a-L 8e- 8c/	.	8a-/	-nia-	so-	.
.	8gJ 8d 8Bn/	.	8g/	-ło	-bie	.
=6	=6	=6	=6	=6	=6	=6
4G 4C\	4e- 4c/	.	4e-/	po-	wszę-	.
4F 4AA-/	4f 4c/	.	4f/	-le,	-dzie,	.
!!LO:LB:g=original
=7	=7	=7	=7	=7	=7	=7
*	*	*	*	*v:1	*v:2	*
8.GL 8.GG\	8.gL 8.d 8.Bn/	mf	8.g/	A	Lecz	.
16F#XJk 16FF#X\	16a-Jk 16e- 16c/	.	16a-/	gdzie	za	.
!	!	!LO:HP:t=crescendo	!	!	!	!
8GL 8GG^\	8a-L 8e- 8c^>/	<	8a-/	le-	ci-	.
8A-J 8AA-\	8gJ 8d 8B/	.	8g/	-cisz,	-chą	.
=8	=8	=8	=8	=8	=8	=8
8.E-L 8.EE-/	8.ccL 8.g 8.c/	.	8.cc\	od-	wio-	.
16FJk 16FF/	16ddJk 16g 16d/	.	16dd\	-la-	-ską	.
8FL 8FF^/	8ddL 8g 8d^/	.	8dd\	-tu-	na-	.
8E-J 8EE-/	8ccJ 8g 8c/	.	8cc\	-jesz	-szą	.
=9	=9	=9	=9	=9	=9	=9
!	!	!LO:DY:rj	!	!	!	!LO:DY:rj
8DL 8DD\	8bnL 8g 8d/	f	8bn\	Si-	Tę-	f
8cJ 8C\	8anJ 8f#X 8d/	.	8an/	-wy	-skno	.
8BnL 8BBn\	8bL 8g 8d/	.	8b\	mój	to-	.
8AnJ 8AAn\	8ccJ 8f# 8d/	.	8cc\	so-	-bie	.
=10	=10	=10	=10	=10	=10	=10
4Bn 4GG\	4dd 4g 4d/	.	4dd\	-ko-	bę-	.
8B 8G;\	8g 8d;/	.	8g;/	-le?	-dzie.	.
8r	8r	.	8r	.	.	.
!!LO:LB:g=original
=11	=11	=11	=11	=11	=11	=11
*	*	*	*	*v:1	*v:2	*
!	!	!LO:DY:c:rj	!	!	!	!LO:DY:rj
4E- 4EE-/	8g 8e-/	f	8g/	Czy	Co	f
.	4ee- 4g 4e-/	.	4ee-\	le-	spoj-	.
4G 4GG/	.	.	.	.	.	.
.	8dd 8b-X 8e-/	.	8dd\	-cisz	-rzysz	.
=12	=12	=12	=12	=12	=12	=12
4A- 4AA-/	8dd 8b- 8e-/	.	8dd\	za	za	.
.	4cc 4a- 4e-/	.	4cc\	gó-	sie-	.
4AA- 4AAA-/	.	.	.	.	.	.
.	8a- 8e- 8c/	.	8a-/	-ry,	-bie,	.
=13	=13	=13	=13	=13	=13	=13
8BB-L 8BBB-\	8gL 8d 8B-/	.	8g/	Czy	To	.
8A-J 8AA-\	8f 8d 8B-/	.	8f/	za	ser-	.
8GL 8GG\	8e- 8c 8B-/	.	8e-/	mo-	-ce	.
8FJ 8FF\	8fJ 8d 8B-/	.	8f/	-rze	za-	.
=14	=14	=14	=14	=14	=14	=14
*	*^	*	*	*	*	*
2E- 2EE-/	4g 4e- 4B-/	4ryy	>	(4g/	si-	-smu-	.
.	.	.	.	8qb-/)	.	.	.
.	4b- 4g/	(>8e-\L	.	4b-/	-ne,	-cisz,	.
.	.	8d\J)	]	.	.	.	.
*	*v	*v	*	*	*	*	*
!!LO:PB:g=original
=15	=15	=15	=15	=15	=15	=15
*	*	*	*	*v:1	*v:2	*
!	!	!	!	!	!	!LO:DY:rj
2F 2FF/	8b-L 8f 8c/	.	8b-/	Za-	Aż	mf
.	8a-J 8f 8c/	>	8a-/	-tem	się	.
.	8gL 8c 8B-/	.	8g/	słon-	z no-	.
.	8fJ 8c 8A-/	]	8f/	-kiem,	-wą	.
=16	=16	=16	=16	=16	=16	=16
*^	*	*	*	*	*	*
8G/L	4AA-\	8enL 8c/	.	8en/	za	wio-	.
8F/J	.	8fJ 8c/	.	8f/	tem	-sną	.
*ped	*	*	*	*	*	*	*
8A-L 8D 8AA-/	4ryy	8ccL 8f 8c/	.	8cc\	zło-	do	.
*Xped	*	*	*	*	*	*	*
8DD/J	.	(16b-/L	.	(16b-/LL	-tem	nas	.
.	.	16a-/JJ)	.	16a-/JJ)	.	.	.
*v	*v	*	*	*	*	*	*
=17	=17	=17	=17	=17	=17	=17
*	*^	*	*	*	*	*
*ped	*	*	*	*	*	*	*
!	!	!	!LO:DY:rj	!	!	!	!LO:DY:rj
8EE-\L	8g/L	8r	p	8g/	W we-	I	p
*Xped	*	*	*	*	*	*	*
8cJ 8G 8E-\	8cc/J	8g 8e-\	.	8cc\	-sel-	do	.
8GG\L	8.dd/L	8r	.	8.dd\	-szą	gniaz-	.
8BnJ 8G\	.	8g 8f\	.	.	.	.	.
.	16bn/Jk	.	.	16bn\	go-	-da	.
=18	=18	=18	=18	=18	=18	=18	=18
*^	*	*	*	*	*	*	*
8r	[4C\	4dd/	8r	.	4dd\	-ści-	wró-	.
8BnL 8G/	.	.	8gL 8f\	.	.	.	.	.
8cJ 8G/	8C\]	8cc/	8gJ 8e-\	.	8cc\	-nę?	-cisz.	.
8r	8ryy	8r	8ryy	.	8r	.	.	.
*v	*v	*	*	*	*	*	*	*
*	*v	*v	*	*	*	*	*
=:|!	=:|!	=:|!	=:|!	=:|!	=:|!	=:|!
*-	*-	*-	*-	*-	*-	*-
!!!system-decoration: p1{p2}
!!!RDF**kern: > = above
!!!RDF**kern: < = below
!!!ENC: Andrzej Gręziak
!!!END: 2025-03-07
!!!ENC: Marta Lawrence
!!!END: 2025-03-23
